X:1814
T:Halling efter Per Myhr
T:första reprisen - variation på andrastämma
R:Halling
Z:Arr/transkr. Lennart Sohlman
M:2/4
L:1/16
Q:1/4=100
K:Dm
V:1
(e|:a2)(ab) a2(af)|a2(ge) f2(f>g|a2)(ab a2)(af)|[1a2ge f3(g:|[2a2ge f3(e|:!
V:2
(A|:f2)(fg) f2(fd)|f2(e^c) d2(d>e|f2)(fg f2)(fd)|[1f2e^c d3(A:|[2f2e^c d3(^c|:
(:musicend:)

Och här är för säkerhets skull låten i lägre oktavläge (för samspel grovt&grant)

(:music:)
